src/images/single-assets/thUSD.svg

<svg width="144" height="144" viewBox="0 0 144 144" fill="none" xmlns="http://www.w3.org/2000/svg">
<path d="M71.85 143.7C111.532 143.7 143.7 111.532 143.7 71.85C143.7 32.1683 111.532 0 71.85 0C32.1683 0 0 32.1683 0 71.85C0 111.532 32.1683 143.7 71.85 143.7Z" fill="#BD00FF"/>
<path d="M88.7601 35H79.9488V42.181C79.8487 42.2198 79.7489 42.2592 79.6496 42.2991C75.8843 43.8112 72.9212 45.9146 70.7604 48.6092C68.6211 51.3038 67.5621 54.454 67.5835 58.0597C67.5621 62.4603 69.1559 65.9594 72.365 68.5571C75.574 71.1547 79.9491 73.0642 85.4901 74.2855L92.6463 75.9139C95.0424 76.4374 97.0641 77.0189 98.7114 77.6586C100.38 78.2984 101.642 79.0738 102.498 79.9849C103.375 80.8961 103.814 82.0204 103.814 83.3581C103.814 84.7926 103.332 86.0624 102.37 87.1673C101.407 88.2723 100.049 89.135 98.2942 89.7553C96.5613 90.3757 94.5182 90.6858 92.1649 90.6858C89.7688 90.6858 87.6187 90.3563 85.7147 89.6972C83.832 89.0187 82.3238 88.0203 81.1899 86.7021C80.0774 85.3645 79.4463 83.6973 79.2966 81.7006H65.8506C65.9575 85.9848 67.1021 89.5809 69.2843 92.4887C71.4878 95.3772 74.5471 97.5581 78.4622 99.0314C78.9473 99.213 79.4428 99.3833 79.9488 99.5425V106.272H88.7601V101.124C89.912 101.202 91.1005 101.241 92.3254 101.241C93.2145 101.241 94.082 101.221 94.928 101.181V106.272H103.739V99.8236C104.532 99.5965 105.294 99.3421 106.028 99.0605C109.836 97.5872 112.746 95.5226 114.757 92.8667C116.789 90.1915 117.816 87.0316 117.837 83.3871C117.816 80.9058 117.313 78.7055 116.329 76.7863C115.366 74.8671 114.008 73.1999 112.254 71.7848C110.499 70.3696 108.424 69.1774 106.028 68.2081C103.632 67.2388 101.001 66.4634 98.1338 65.8818L92.2291 64.6024C90.7957 64.3116 89.4479 63.9627 88.1857 63.5555C86.9234 63.1291 85.811 62.6347 84.8483 62.0725C83.8855 61.491 83.126 60.8028 82.5698 60.008C82.035 59.2132 81.7889 58.2826 81.8317 57.2164C81.8317 55.937 82.2382 54.7932 83.0512 53.7852C83.8855 52.7771 85.0836 51.992 86.6453 51.4298C88.2071 50.8482 90.1218 50.5574 92.3896 50.5574C95.727 50.5574 98.3691 51.2069 100.316 52.5057C102.263 53.8045 103.365 55.6268 103.621 57.9725H116.939C116.875 54.4249 115.826 51.3038 113.794 48.6092C111.762 45.9146 108.916 43.8112 105.258 42.2991C104.763 42.0934 104.257 41.9017 103.739 41.724V35H94.928V40.097C94.132 40.053 93.3179 40.031 92.4858 40.031C91.2074 40.031 89.9655 40.0848 88.7601 40.1924V35Z" fill="white"/>
<path fill-rule="evenodd" clip-rule="evenodd" d="M47.5899 53.3071H34.9193V65.9778H22.2487V78.6484H34.9193V91.3191H47.5899V78.6484H60.2606V65.9778H47.5899V53.3071ZM47.5899 65.9778V78.6484H34.9193V65.9778H47.5899Z" fill="white"/>
</svg>

<svg xmlns="http://www.w3.org/2000/svg" width="144" height="144" fill="none"><path fill="#BD00FF" d="M71.85 143.7c39.682 0 71.85-32.168 71.85-71.85S111.532 0 71.85 0 0 32.168 0 71.85s32.168 71.85 71.85 71.85"/><path fill="#fff" d="M88.76 35H79.95v7.181l-.3.118q-5.647 2.268-8.889 6.31-3.208 4.042-3.177 9.45-.03 6.601 4.782 10.498t13.125 5.728l7.156 1.629q3.594.785 6.065 1.745 2.503.96 3.787 2.326 1.316 1.366 1.316 3.373 0 2.152-1.444 3.81-1.444 1.656-4.076 2.587-2.6.93-6.13.93-3.593 0-6.45-.988-2.823-1.018-4.524-2.995-1.67-2.006-1.893-5.001H65.85q.16 6.426 3.433 10.788 3.306 4.333 9.178 6.542.727.273 1.487.511v6.73h8.811v-5.148q1.728.117 3.565.117 1.335 0 2.603-.06v5.091h8.811v-6.448a28 28 0 0 0 2.289-.763q5.712-2.21 8.729-6.194 3.048-4.012 3.08-9.48-.032-3.721-1.508-6.6-1.444-2.88-4.075-5.002-2.632-2.123-6.226-3.577-3.594-1.455-7.894-2.326l-5.905-1.28a37 37 0 0 1-4.043-1.047q-1.894-.639-3.338-1.483-1.444-.872-2.278-2.064-.802-1.192-.738-2.792 0-1.919 1.22-3.43 1.25-1.513 3.593-2.356 2.343-.873 5.745-.873 5.006 0 7.926 1.949 2.92 1.947 3.305 5.466h13.318q-.096-5.32-3.145-9.363-3.048-4.041-8.536-6.31a26 26 0 0 0-1.519-.575V35h-8.811v5.097a44 44 0 0 0-6.168.095z"/><path fill="#fff" fill-rule="evenodd" d="M47.59 53.307H34.92v12.67H22.248v12.671h12.67V91.32h12.67V78.65h12.672V65.977H47.59zm0 12.67v12.671H34.92v-12.67z" clip-rule="evenodd"/></svg>
